X:1
T:Title
%%score { ( 1 2 3 ) | ( 4 5 ) }
L:1/8
Q:1/4=100
M:3/4
K:Eb
V:1 bass nm="Grand Piano"
V:2 bass 
V:3 bass 
V:4 bass 
V:5 bass 
V:1
 E2 z2 z[K:treble] C | G>G G>G G>A |[M:4/4] G>=E z2 z4[K:bass] |[M:3/4] D2 z2 z B, | F>F F>F F>G | %5
w: ????~???? *|||||
[M:4/4] F>D z2 z4[K:bass] |[M:3/4] E2 z2 z z/ C/ | c>c c>c c>_d |[M:4/4] E2 [_DB]6[K:bass] | %9
w: ||||
[M:3/4] z2 [_DE]4 | B>B B>B B>c |[M:4/4] _D2 A6 |[M:3/4] z2[K:bass] [=B,D]4 | G2 z2[K:bass] D2 | %14
w: |||||
[M:4/4] z2 C6[K:treble] |[M:3/4] c>d e>e e>c |[M:4/4] d>d d>=B c2- [C,E,c-]2 | %17
w: |||
 [C,-E,-c]2 [C,E,]2 B>A A>G | G>F F>=E F2- [F,F-]2 | F>F F>G A>A A>=B | c>c =B>c d2- [D,F,d-]2 | %21
w: ||||
 [D,-F,-d]2 [D,F,]2 c>B B>A | A>G G>_G [C=G]4 | D8 | [Dd]2 [Ec]2 E,2 [CA]2 | [CG]2 E,2 F>E D>E | %26
w: |||||
 C8 |] %27
w: |
V:2
 z2 C4[K:treble] | C4 C2 |[M:4/4] B,2 [CF]6[K:bass] |[M:3/4] z2 B,4 | x6 |[M:4/4] z2 E6[K:bass] | %6
[M:3/4] z2 C4 | E4 E2 |[M:4/4] c>=A z2 z4[K:bass] |[M:3/4] G2 [E,G,]2 [E,G,]2 | _D4 D2 | %11
[M:4/4] B>G z2 z4 |[M:3/4] A2[K:bass] [D,F,]2 [D,F,]2 | C4[K:bass] [D,F,=B,]->[D,-F,-B,-F] | %14
[M:4/4] [D,-F,-B,-E]>[D,F,B,D] z2 z2 z z/[K:treble] c/ |[M:3/4] z2 E2 z2 |[M:4/4] F4 E4- | E4 C4 | %18
 C4 C4 | C4 C4 | E4 F4- | F4 F4 | C4 z4 | =B4- [D,-F,-B]2 [D,F,]2 | x8 | z4 =B,4 | x8 |] %27
V:3
 z2 z2 E,2[K:treble] | x6 |[M:4/4] z4 z2[K:bass] F,2- |[M:3/4] F,2 z2 F,2 | x6 | %5
[M:4/4] z4 z2[K:bass] E,2- |[M:3/4] E,2 z2 E,2 | x6 |[M:4/4] z4 z2[K:bass] F,2- | %9
[M:3/4] F,2 z2 z2 | x6 |[M:4/4] z4 z2 A,2- |[M:3/4] A,2[K:bass] z2 z2 | x4[K:bass] x2 | %14
[M:4/4] z4 E,4[K:treble] |[M:3/4] x6 |[M:4/4] x8 | x8 | x8 | x8 | x8 | x8 | x8 | x8 | x8 | x8 | %26
 x8 |] %27
V:4
 z2 G,4 | [G,,C,E,]4 [G,,C,E,]2 |[M:4/4] [G,,C,=E,]2 [A,,C,F,]4 z2 | %3
[M:3/4] C2 [B,,D,F,]2 [B,,D,]2 | [B,,D,F,B,]4 [B,,D,F,B,]2- | %5
[M:4/4] [B,,D,F,B,]2 G,4- [G,,C,G,]2- |[M:3/4] [G,,C,G,]2 G,2- [G,,C,G,]2 | [G,,C,E,]4 [G,,C,E,]2 | %8
[M:4/4] [=A,,C,F,]2 [B,,_D,F,]4 z2 |[M:3/4] D2 B,,2 z z/ E/ | [B,,E,G,]4 [B,,E,G,]2 | %11
[M:4/4] [B,,E,G,]2 C4- [C,E,C]2- |[M:3/4] [C,E,C]2 G,,2 z z/ D/ | %13
 z z/[K:treble] G/ G>E[K:bass] G,,2- |[M:4/4] G,,2 [G,,C,E,]2 [G,,C,]4 | %15
[M:3/4] [A,,C,E,]2 [G,,C,E,]4 |[M:4/4] [G,,D,F,]4 [G,,C,E,]2 G,,2 | %17
 z z/[K:treble] c/ c>B[K:bass] [A,,C,F,]4 | [A,,C,F,]4 [A,,C,F,]2 [A,,C,]2 | %19
 [A,,C,F,]4 [A,,C,F,]4 | [G,,C,E,]4 [G,,D,F,]2 G,,2 | z z/[K:treble] d/ d>c[K:bass] [A,,C,F,]4 | %22
 [A,,C,F,]4 [G,,C,E,]4 | [G,,D,F,]4 z z/[K:treble] =B/ B>d | %24
 [G,,D,F,]2 [G,,C,E,]2 [G,,C,]2 [A,,C,F,]2 | [G,,C,E,]2 [G,,C,]2 [G,,D,F,]2 [G,,D,F,]2 | %26
 [G,,C,E,G,]8 |] %27
V:5
 z2 [G,,C,E,]2 [G,,C,]2 | x6 |[M:4/4] z4 z2 [A,,C,]2- |[M:3/4] [A,,C,]2 z2 z2 | x6 | %5
[M:4/4] z2 [G,,C,E,]4 z2 |[M:3/4] z2 [G,,C,E,]2 z2 | x6 |[M:4/4] z4 z2 [B,,_D,]2- | %9
[M:3/4] [B,,D,]2 z2 B,,2 | x6 |[M:4/4] z2 [C,E,A,]4 z2 |[M:3/4] z2 z2 G,,2 | %13
 [G,,C,E,]4[K:treble][K:bass] z2 |[M:4/4] x8 |[M:3/4] x6 |[M:4/4] x8 | G,,4[K:treble][K:bass] z4 | %18
 x8 | x8 | x8 | G,,4[K:treble][K:bass] z4 | x8 | z4 G,,4[K:treble] | x8 | x8 | x8 |] %27

